X: 32992
T: Pretty Little Mary
R: reel
M: 4/4
K: Adorian
|:BddB G2G2|BddB G2GA|B2e2 eged|1 BBAF A2A2:|2 BBAF A2ef||
|:g2e2 f4|efed BABd|e2ef gfed|1 BBA2 A2ef:|2 BBAF A2A2||

